X: 12328
T: Faithful Friend, The
R: hornpipe
M: 4/4
K: Dmajor
|:(AG)|FD D2 DEFG|A^GAB =cBA^c|dAde fded|cA (3gfe dcAG|
FDDE FEFG|(3ABA AB =cA (3AB^c|dcde (3fed ed|cABc d2:|
|:g|fddA dfaf|(3gag ed cd (3efg|fddA dfaf|ge (3cBA d3g|
fddA dfaf|(3gag ed cd e2|f3a gbag|(3fga eg fddg:|
|:f3d e3c|dcAB =cAGB|AD D2 DEFG|ABcA dAde|
(3fed ed dcAB|=cBcA GFEF|Ddd^c defa|gece d2:|

